dist/svgs/crypto-icons/icons/cvc.svg

<?xml version="1.0" encoding="UTF-8" standalone="yes"?>
<svg xmlns="http://www.w3.org/2000/svg" xmlns:xlink="http://www.w3.org/1999/xlink" width="504px" height="510.66666666666663px" viewBox="0 0 378 383" version="1.1">
  <g id="surface1">
    <path style=" stroke:none;fill-rule:evenodd;fill:rgb(0%,0%,0%);fill-opacity:1;" d="M 190.996094 335.125 C 171.285156 335.125 152.636719 331.402344 135.058594 323.953125 C 117.742188 316.242188 102.558594 305.867188 89.503906 292.835938 C 76.453125 279.800781 66.195312 264.640625 58.738281 247.355469 C 51.011719 229.800781 47.148438 211.183594 47.148438 191.5 C 47.148438 171.816406 51.011719 153.199219 58.738281 135.644531 C 66.195312 118.359375 76.453125 103.199219 89.503906 90.164062 C 102.558594 77.132812 117.742188 66.757812 135.058594 59.046875 C 152.636719 51.597656 171.285156 47.875 190.996094 47.875 C 207.246094 47.875 222.699219 50.402344 237.347656 55.457031 C 252 60.507812 265.320312 67.558594 277.304688 76.601562 C 289.292969 85.644531 299.683594 96.414062 308.472656 108.914062 C 317.265625 121.152344 323.925781 134.582031 328.453125 149.210938 L 378 149.210938 C 373.203125 127.933594 364.945312 108.117188 353.226562 89.765625 C 341.773438 71.679688 327.785156 55.988281 311.269531 42.6875 C 294.753906 29.390625 276.375 18.882812 256.128906 11.171875 C 235.617188 3.722656 213.90625 0 190.996094 0 C 164.625 0 139.851562 5.054688 116.675781 15.160156 C 93.234375 25 72.921875 38.566406 55.742188 55.855469 C 38.558594 73.140625 24.90625 93.488281 14.785156 116.894531 C 4.929688 140.035156 0 164.902344 0 191.5 C 0 218.097656 5.0625 242.964844 15.183594 266.105469 C 25.039062 289.246094 38.625 309.523438 55.941406 326.945312 C 73.253906 344.367188 93.5 358 116.675781 367.839844 C 139.851562 377.945312 164.625 383 190.996094 383 C 213.90625 383 235.617188 379.277344 256.128906 371.828125 C 276.640625 364.117188 295.085938 353.609375 311.46875 340.3125 C 327.851562 327.011719 341.90625 311.320312 353.625 293.234375 C 365.082031 274.882812 373.203125 255.066406 378 233.789062 L 328.453125 233.789062 C 323.925781 248.417969 317.265625 261.847656 308.472656 274.085938 C 299.683594 286.585938 289.292969 297.355469 277.304688 306.398438 C 265.320312 315.441406 252 322.492188 237.347656 327.542969 C 222.699219 332.597656 207.246094 335.125 190.996094 335.125 Z M 210.175781 261.714844 L 210.175781 206.261719 C 217.636719 202.804688 223.695312 197.484375 228.359375 190.304688 C 233.019531 183.121094 235.351562 175.011719 235.351562 165.964844 C 235.351562 153.464844 231.023438 142.894531 222.363281 134.25 C 213.707031 125.605469 203.117188 121.285156 190.597656 121.285156 C 178.078125 121.285156 167.488281 125.605469 158.832031 134.25 C 150.175781 142.894531 145.84375 153.464844 145.84375 165.964844 C 145.84375 175.011719 148.175781 183.121094 152.839844 190.304688 C 157.5 197.484375 163.425781 202.804688 170.621094 206.261719 L 170.621094 261.714844 Z M 210.175781 261.714844 "/>
  </g>
</svg>

<svg xmlns="http://www.w3.org/2000/svg" viewBox="0 0 378 383"><path fill-rule="evenodd" d="M190.996 335.125c-19.71 0-38.36-3.723-55.937-11.172-17.317-7.71-32.5-18.086-45.555-31.117-13.05-13.035-23.309-28.195-30.766-45.48-7.726-17.555-11.59-36.172-11.59-55.856 0-19.684 3.864-38.3 11.59-55.855 7.457-17.286 17.715-32.446 30.766-45.48 13.055-13.032 28.238-23.407 45.555-31.118 17.578-7.45 36.226-11.172 55.937-11.172 16.25 0 31.703 2.527 46.352 7.582 14.652 5.05 27.972 12.102 39.957 21.145 11.988 9.043 22.379 19.812 31.168 32.312 8.793 12.238 15.453 25.668 19.98 40.297H378c-4.797-21.277-13.055-41.094-24.773-59.445-11.454-18.086-25.442-33.778-41.957-47.079-16.516-13.296-34.895-23.804-55.141-31.515C235.617 3.722 213.906 0 190.996 0c-26.371 0-51.144 5.055-74.32 15.16C93.234 25 72.922 38.566 55.742 55.855c-17.183 17.286-30.836 37.633-40.957 61.04C4.93 140.035 0 164.902 0 191.5c0 26.598 5.063 51.465 15.184 74.605 9.855 23.141 23.441 43.418 40.757 60.84C73.254 344.367 93.5 358 116.676 367.84c23.176 10.105 47.949 15.16 74.32 15.16 22.91 0 44.621-3.723 65.133-11.172 20.512-7.71 38.957-18.219 55.34-31.515 16.383-13.301 30.437-28.993 42.156-47.079 11.457-18.351 19.578-38.168 24.375-59.445h-49.547c-4.527 14.629-11.187 28.059-19.98 40.297-8.79 12.5-19.18 23.27-31.168 32.312-11.985 9.043-25.305 16.094-39.957 21.145-14.649 5.055-30.102 7.582-46.352 7.582zm19.18-73.41v-55.453c7.46-3.457 13.52-8.778 18.183-15.957 4.66-7.184 6.993-15.293 6.993-24.34 0-12.5-4.329-23.07-12.989-31.715-8.656-8.645-19.246-12.965-31.765-12.965-12.52 0-23.11 4.32-31.766 12.965-8.656 8.645-12.988 19.215-12.988 31.715 0 9.047 2.332 17.156 6.996 24.34 4.66 7.18 10.586 12.5 17.781 15.957v55.453zm0 0"/></svg>
